docs/img/logo_04.svg

<svg width="168" height="36" viewBox="0 0 168 36" fill="none" xmlns="http://www.w3.org/2000/svg">
<g clip-path="url(#clip0)">
<path d="M37.0858 13.8831C36.3887 13.5537 35.7381 13.4596 35.1339 13.4596C34.4833 13.5066 33.8791 13.1301 33.5538 12.5184L31.3696 8.70662C31.0443 8.14191 31.0908 7.38897 31.4161 6.82426C31.8808 6.02426 32.1132 5.08309 32.0202 4.04779C31.8343 1.93015 30.1148 0.188968 28.0235 0.000733158C26.1646 -0.187502 24.5381 0.753674 23.7016 2.2125C23.3762 2.7772 22.7721 3.15367 22.1215 3.15367H17.846C17.1953 3.15367 16.5912 2.7772 16.2659 2.2125C15.4294 0.753674 13.7563 -0.187502 11.9439 0.000733158C9.85259 0.236027 8.17956 1.9772 7.9472 4.09485C7.85425 5.13014 8.08662 6.07132 8.55135 6.87132C8.87666 7.43603 8.92313 8.14191 8.59782 8.75367L6.46006 12.5654C6.13475 13.1772 5.48413 13.5066 4.78703 13.5066C4.41525 13.5066 3.99699 13.5066 3.57873 13.6007C1.81276 13.9772 0.418569 15.436 0.13973 17.2243C-0.325 20.0478 1.81276 22.5419 4.55467 22.5419C4.60114 22.5419 4.64761 22.5419 4.64761 22.5419C5.29824 22.5419 5.94886 22.8713 6.27417 23.436L8.50488 27.3419C8.83019 27.9066 8.78371 28.6125 8.4584 29.2243C7.99367 30.0243 7.76131 30.9654 7.85425 31.9537C8.04014 34.0713 9.75965 35.7654 11.8045 36.0007C13.6169 36.189 15.2899 35.2948 16.1265 33.836C16.4518 33.2713 17.0559 32.8949 17.7065 32.8949H22.075C22.7256 32.8949 23.3298 33.2713 23.6551 33.836C24.4451 35.2007 25.9323 36.0948 27.6053 36.0478C29.9289 36.0007 31.9273 34.0243 31.9738 31.6713C32.0667 29.1301 30.0219 27.0125 27.5123 27.0125C25.7464 27.0125 24.2128 28.0478 23.4692 29.6007C23.1904 30.2125 22.5397 30.589 21.8426 30.589H17.8924C17.1953 30.589 16.5912 30.2125 16.2659 29.6007C15.5688 28.0948 13.9887 27.0125 12.2227 27.0125C12.1298 27.0125 12.0368 27.0125 11.9904 27.0125C11.3397 27.0596 10.6891 26.6831 10.3638 26.1184L8.22604 22.3537C7.90073 21.7419 7.9472 20.989 8.27251 20.4243C8.27251 20.3772 8.31898 20.3772 8.31898 20.3301C8.64429 19.7654 9.24844 19.389 9.89907 19.389L14.3605 19.3419C15.0576 19.3419 15.6617 19.7184 15.987 20.3301C16.7771 21.6948 18.2177 22.589 19.8443 22.589C21.5173 22.589 22.958 21.6478 23.748 20.2831C24.0733 19.6713 24.6775 19.2948 25.3746 19.2948H30.9513C31.4625 21.2243 33.1821 22.589 35.2733 22.589C37.9223 22.589 40.0136 20.2831 39.7347 17.5537C39.5489 15.9066 38.48 14.5419 37.0858 13.8831ZM19.8908 13.4596C18.1248 13.4596 16.6377 14.4949 15.8941 15.9537C15.6152 16.5654 14.9646 16.8948 14.314 16.8948L10.1314 16.9419C9.43434 16.9419 8.83019 16.5654 8.50488 15.9537C8.4584 15.8596 8.41193 15.7654 8.36546 15.6713C8.04014 15.1066 7.99367 14.4478 8.31898 13.8831L10.5497 9.93014C10.875 9.31838 11.5256 8.98897 12.1762 8.98897C12.2227 8.98897 12.2692 8.98897 12.3621 8.98897C14.1281 8.98897 15.6152 7.95367 16.3588 6.44779C16.6377 5.83603 17.2883 5.45956 17.9389 5.45956H21.9356C22.5862 5.45956 23.2368 5.83603 23.5157 6.44779C24.2592 7.95367 25.7464 8.98897 27.5123 8.98897C27.5588 8.98897 27.6518 8.98897 27.6982 8.98897C28.3953 8.94191 28.9995 9.31838 29.3248 9.93014L31.4161 13.6478C31.7414 14.2596 31.7879 14.9654 31.4161 15.5301C31.1837 15.9066 30.9978 16.3301 30.9049 16.8007H25.4211C24.724 16.8007 24.1198 16.3772 23.7945 15.7654C23.0509 14.4478 21.5638 13.4596 19.8908 13.4596Z" fill="url(#paint0_linear)"/>
<path d="M59.9037 12.4706C60.322 12.4706 60.6473 12.4235 60.9261 12.1883C61.205 11.953 61.2979 11.6235 61.2979 11.2471C61.2979 10.8235 61.1585 10.5412 60.8797 10.2588C60.6008 10.0235 60.2755 9.88237 59.9037 9.88237H52.2822C51.8639 9.88237 51.5386 10.0235 51.3062 10.3059C51.0274 10.5883 50.888 10.9177 50.888 11.2941V24.6588C50.888 25.0824 51.0274 25.4118 51.3062 25.6471C51.5851 25.9294 51.9104 26.0706 52.2822 26.0706H59.9037C60.322 26.0706 60.6473 25.9294 60.8797 25.6941C61.1585 25.4588 61.2979 25.1294 61.2979 24.753C61.2979 24.3765 61.1585 24.0941 60.8797 23.8118C60.6008 23.5294 60.2755 23.3883 59.9037 23.3883H53.7228V19.1059H58.8813C59.2996 19.1059 59.6249 18.9647 59.9037 18.7294C60.1826 18.4941 60.2755 18.1647 60.2755 17.7883C60.2755 17.3647 60.1361 17.0824 59.8573 16.8C59.5784 16.5647 59.2531 16.4235 58.8813 16.4235H53.7228V12.4706H59.9037ZM77.7959 13.5059C76.9129 13.5059 76.0764 13.7883 75.3793 14.3059C74.6822 14.8235 74.1245 15.4353 73.7992 16.0471C73.288 14.353 72.0332 13.5059 70.1278 13.5059C69.3378 13.5059 68.6407 13.6941 68.0365 14.1177C67.3859 14.4941 66.8747 14.9647 66.4564 15.5294V15.153C66.4564 14.7294 66.317 14.4 66.0847 14.1647C65.8058 13.8824 65.4805 13.7412 65.1087 13.7412C64.6905 13.7412 64.3652 13.8824 64.1328 14.1647C63.8539 14.4471 63.761 14.7765 63.761 15.153V24.7059C63.761 25.1294 63.9004 25.4588 64.1328 25.6941C64.4116 25.9765 64.7369 26.1177 65.1087 26.1177C65.527 26.1177 65.8523 25.9765 66.0847 25.6941C66.3635 25.4118 66.4564 25.0824 66.4564 24.7059V18.7765C66.4564 17.9765 66.6888 17.3177 67.1535 16.8C67.6183 16.2824 68.3154 16.0471 69.1519 16.0471C69.9884 16.0471 70.5461 16.2824 70.8714 16.753C71.1967 17.2235 71.3826 17.8824 71.3826 18.7765V24.7059C71.3826 25.1294 71.522 25.4588 71.7544 25.6941C72.0332 25.9765 72.3585 26.1177 72.7303 26.1177C73.1486 26.1177 73.4739 25.9765 73.7062 25.6941C73.9851 25.4118 74.078 25.0824 74.078 24.7059V18.7765C74.078 17.9765 74.3104 17.3177 74.7751 16.8C75.2398 16.2824 75.9369 16.0471 76.7734 16.0471C77.61 16.0471 78.1676 16.2824 78.493 16.753C78.8183 17.2235 79.0042 17.8824 79.0042 18.7765V24.7059C79.0042 25.1294 79.1436 25.4588 79.3759 25.6941C79.6548 25.9765 79.9801 26.1177 80.3519 26.1177C80.7701 26.1177 81.0954 25.9765 81.3278 25.6941C81.6066 25.4118 81.6996 25.0824 81.6996 24.7059V18.7765C81.6996 17.1294 81.4208 15.8588 80.8166 14.9177C80.3519 13.9765 79.283 13.5059 77.7959 13.5059ZM94.1544 14.3059C93.3179 13.7412 92.3419 13.5059 91.3195 13.5059C90.6224 13.5059 89.9253 13.6941 89.2747 14.0235C88.6241 14.353 88.1129 14.7765 87.7411 15.2471V15.153C87.7411 14.7294 87.6017 14.4 87.3693 14.1647C87.0905 13.8824 86.7652 13.7412 86.3934 13.7412C85.9751 13.7412 85.6498 13.8824 85.4174 14.1647C85.1386 14.4471 85.0457 14.7765 85.0457 15.153V29.3177C85.0457 29.7412 85.1851 30.0706 85.4174 30.353C85.6963 30.6353 86.0216 30.7294 86.3934 30.7294C86.8116 30.7294 87.1369 30.5883 87.3693 30.3059C87.6481 30.0235 87.7411 29.6941 87.7411 29.3177V24.8C88.1593 25.2235 88.717 25.6 89.3676 25.8824C90.0183 26.1647 90.7154 26.353 91.4125 26.353C92.4349 26.353 93.3643 26.0706 94.2008 25.553C95.0374 24.9883 95.688 24.2353 96.1992 23.2471C96.6639 22.2588 96.9427 21.1765 96.9427 19.9059C96.9427 18.6824 96.7104 17.553 96.1992 16.6118C95.688 15.6235 94.9909 14.8706 94.1544 14.3059ZM93.3643 22.6824C92.7602 23.4353 91.9237 23.8118 90.9477 23.8118C89.9718 23.8118 89.1353 23.4353 88.5311 22.6824C87.927 21.9294 87.6017 21.0353 87.6017 19.9059C87.6017 18.7765 87.927 17.8824 88.5311 17.1294C89.1353 16.3765 89.9718 16.0471 90.9477 16.0471C91.9237 16.0471 92.7602 16.4235 93.3643 17.1294C93.9685 17.8824 94.2938 18.7765 94.2938 19.9059C94.2938 20.9883 93.9685 21.9294 93.3643 22.6824ZM105.912 13.5059C105.122 13.5059 104.425 13.6941 103.821 14.1177C103.17 14.4941 102.659 14.9647 102.241 15.5294V10.4C102.241 9.97649 102.101 9.64707 101.869 9.41178C101.59 9.12943 101.265 8.98825 100.893 8.98825C100.475 8.98825 100.149 9.12943 99.917 9.41178C99.6382 9.69413 99.5452 10.0235 99.5452 10.4V24.7059C99.5452 25.1294 99.6847 25.4588 99.917 25.6941C100.196 25.9765 100.521 26.1177 100.893 26.1177C101.311 26.1177 101.637 25.9765 101.869 25.6941C102.148 25.4118 102.241 25.0824 102.241 24.7059V18.7765C102.241 17.9765 102.473 17.3177 102.938 16.8C103.403 16.2824 104.1 16.0471 104.936 16.0471C105.773 16.0471 106.33 16.2824 106.656 16.753C106.981 17.2235 107.167 17.8824 107.167 18.7765V24.7059C107.167 25.1294 107.306 25.4588 107.539 25.6941C107.817 25.9765 108.143 26.1177 108.515 26.1177C108.886 26.1177 109.258 25.9765 109.49 25.6941C109.769 25.4118 109.862 25.0824 109.862 24.7059V18.7765C109.862 17.1294 109.583 15.8588 108.979 14.9177C108.468 13.9765 107.446 13.5059 105.912 13.5059ZM123.061 13.5059C122.642 13.5059 122.317 13.6471 122.085 13.9294C121.806 14.2118 121.713 14.5412 121.713 14.9177C121.295 14.4941 120.737 14.1647 120.086 13.8824C119.436 13.6 118.785 13.4588 118.042 13.4588C117.019 13.4588 116.09 13.7412 115.253 14.2588C114.417 14.8235 113.766 15.5765 113.255 16.5647C112.79 17.553 112.511 18.6353 112.511 19.9059C112.511 21.1294 112.744 22.2588 113.255 23.2C113.766 24.1883 114.417 24.9412 115.253 25.4588C116.09 26.0235 117.066 26.2588 118.088 26.2588C118.785 26.2588 119.482 26.1177 120.133 25.7882C120.783 25.4588 121.295 25.0824 121.666 24.6588C121.666 25.0824 121.806 25.4118 122.085 25.6471C122.317 25.9294 122.642 26.0235 123.061 26.0235C123.479 26.0235 123.804 25.8824 124.037 25.6C124.315 25.3177 124.408 24.9883 124.408 24.6118V14.9177C124.408 14.4941 124.269 14.1647 124.037 13.8824C123.758 13.6 123.432 13.5059 123.061 13.5059ZM120.876 22.6824C120.272 23.4353 119.436 23.7647 118.46 23.7647C117.484 23.7647 116.647 23.3883 116.043 22.6824C115.439 21.9294 115.114 21.0353 115.114 19.9059C115.114 18.7765 115.439 17.8824 116.043 17.1294C116.647 16.3765 117.484 16 118.46 16C119.436 16 120.272 16.3765 120.876 17.1294C121.481 17.8824 121.806 18.7765 121.806 19.9059C121.806 21.0353 121.481 21.9294 120.876 22.6824ZM135.376 18.2118C134.679 17.8824 133.796 17.553 132.727 17.2235C131.472 16.8 130.543 16.3765 129.846 15.9059C129.195 15.4353 128.823 14.7294 128.823 13.8353C128.823 12.9883 129.195 12.2824 129.892 11.8118C130.589 11.2941 131.519 11.0588 132.588 11.0588C133.331 11.0588 134.028 11.2 134.725 11.5294C135.422 11.8588 135.934 12.2353 136.352 12.753C136.445 12.8471 136.584 12.8941 136.724 12.8941C136.91 12.8941 137.095 12.8 137.235 12.6588C137.374 12.5177 137.467 12.3765 137.467 12.1883C137.467 12 137.374 11.7647 137.142 11.5294C136.677 10.9647 136.027 10.4941 135.19 10.1647C134.354 9.83531 133.517 9.69413 132.588 9.69413C131.565 9.69413 130.682 9.88237 129.892 10.2588C129.102 10.6353 128.498 11.1059 128.08 11.7647C127.661 12.3765 127.429 13.1294 127.429 13.9294C127.429 14.8235 127.615 15.5765 128.033 16.1883C128.451 16.8 128.963 17.2706 129.66 17.6C130.31 17.9765 131.147 18.2588 132.123 18.5883C133.006 18.8706 133.749 19.153 134.354 19.4353C134.911 19.7177 135.376 20.0941 135.748 20.5177C136.12 20.9412 136.305 21.5059 136.305 22.1647C136.305 23.0118 135.934 23.7177 135.237 24.2353C134.493 24.753 133.61 25.0353 132.495 25.0353C130.729 25.0353 129.242 24.3765 128.033 23.0588C127.894 22.9177 127.708 22.8235 127.522 22.8235C127.336 22.8235 127.197 22.9177 127.011 23.0588C126.871 23.2 126.778 23.3883 126.778 23.5765C126.778 23.8118 126.871 24 127.057 24.1412C127.847 24.9412 128.684 25.5059 129.52 25.8824C130.357 26.2588 131.333 26.4471 132.448 26.4471C133.471 26.4471 134.354 26.2588 135.19 25.8824C135.98 25.5059 136.631 24.9883 137.049 24.3765C137.514 23.7177 137.7 23.0118 137.7 22.2588C137.7 21.2235 137.467 20.4235 137.049 19.8118C136.631 19.0118 136.073 18.5412 135.376 18.2118ZM148.714 14.8235C147.831 14.3059 146.855 14.0235 145.786 14.0235C144.717 14.0235 143.741 14.3059 142.858 14.8235C141.975 15.3412 141.278 16.0941 140.767 17.0353C140.256 17.9765 140.023 19.0118 140.023 20.1883C140.023 21.3647 140.256 22.4 140.767 23.3412C141.278 24.2824 141.975 25.0353 142.858 25.553C143.741 26.0706 144.717 26.353 145.786 26.353C146.855 26.353 147.831 26.0706 148.714 25.553C149.597 25.0353 150.294 24.2824 150.805 23.3412C151.316 22.4 151.549 21.3647 151.549 20.1883C151.549 19.0118 151.316 17.9765 150.805 17.0353C150.294 16.0941 149.597 15.3412 148.714 14.8235ZM149.597 22.6824C149.225 23.4353 148.667 24 148.017 24.4235C147.32 24.8471 146.576 25.0353 145.786 25.0353C144.949 25.0353 144.206 24.8 143.555 24.3765C142.905 23.953 142.347 23.3883 141.975 22.6353C141.603 21.8824 141.371 21.0824 141.371 20.1412C141.371 19.2 141.557 18.4 141.975 17.6471C142.347 16.8941 142.905 16.3294 143.555 15.9059C144.206 15.4824 144.949 15.2471 145.786 15.2471C146.622 15.2471 147.366 15.4824 148.017 15.9059C148.714 16.3294 149.225 16.8941 149.597 17.6471C149.968 18.4 150.154 19.2 150.154 20.1412C150.201 21.0824 150.015 21.9294 149.597 22.6824ZM159.356 9.2706C158.984 9.12943 158.612 9.08237 158.148 9.08237C157.218 9.08237 156.475 9.36472 155.917 9.88237C155.359 10.4 155.081 11.153 155.081 12.1412V14.5412H153.407C153.222 14.5412 153.082 14.5883 152.943 14.7294C152.803 14.8235 152.757 15.0118 152.757 15.2C152.757 15.3883 152.803 15.5294 152.943 15.6706C153.082 15.8118 153.222 15.8588 153.407 15.8588H155.081V25.4118C155.081 25.6 155.127 25.7883 155.266 25.9294C155.406 26.0706 155.545 26.1177 155.778 26.1177C155.964 26.1177 156.149 26.0706 156.289 25.9294C156.428 25.7883 156.475 25.6471 156.475 25.4118V15.8118H159.031C159.217 15.8118 159.356 15.7647 159.495 15.6235C159.635 15.4824 159.681 15.3412 159.681 15.153C159.681 14.9647 159.635 14.8235 159.495 14.6824C159.356 14.5412 159.217 14.4941 159.031 14.4941H156.475V12.0941C156.475 11.5294 156.614 11.0588 156.893 10.7294C157.172 10.4 157.544 10.2588 158.008 10.2588C158.194 10.2588 158.473 10.3059 158.798 10.4C158.984 10.4941 159.17 10.4941 159.31 10.4941C159.449 10.4941 159.588 10.4471 159.728 10.3059C159.867 10.1647 159.914 10.0235 159.914 9.83531C159.867 9.60002 159.728 9.41178 159.356 9.2706ZM167.349 15.6235C167.535 15.6235 167.675 15.5765 167.814 15.4353C167.954 15.3412 168 15.153 168 14.9647C168 14.7765 167.954 14.6353 167.814 14.4941C167.675 14.353 167.535 14.3059 167.349 14.3059H165.072V11.7647C165.072 11.5765 165.026 11.3883 164.886 11.2471C164.747 11.1059 164.607 11.0588 164.375 11.0588C164.189 11.0588 164.003 11.1059 163.864 11.2471C163.725 11.3883 163.678 11.5294 163.678 11.7647V14.353H162.005C161.819 14.353 161.68 14.4 161.54 14.5412C161.401 14.6824 161.354 14.8235 161.354 15.0118C161.354 15.2 161.401 15.3412 161.54 15.4824C161.68 15.6235 161.819 15.6706 162.005 15.6706H163.678V23.4824C163.678 24.3294 163.817 24.9412 164.143 25.3177C164.422 25.6941 164.747 25.9294 165.072 26.0235C165.398 26.1177 165.769 26.1177 166.188 26.1177C166.513 26.1177 166.792 26.0235 167.071 25.8824C167.303 25.7412 167.442 25.553 167.442 25.3177C167.442 25.1765 167.396 25.0353 167.303 24.8941C167.21 24.8 167.071 24.7059 166.931 24.7059C166.838 24.7059 166.745 24.7059 166.606 24.753C166.466 24.8 166.373 24.8 166.281 24.8C165.909 24.8 165.63 24.7059 165.444 24.4706C165.212 24.2824 165.119 23.8588 165.119 23.2941V15.6235H167.349Z" fill="#4C4C4C"/>
</g>
<defs>
<linearGradient id="paint0_linear" x1="6.31772" y1="31.833" x2="33.912" y2="4.5823" gradientUnits="userSpaceOnUse">
<stop stop-color="#0090C6"/>
<stop offset="1" stop-color="#1EDDD6"/>
</linearGradient>
<clipPath id="clip0">
<rect width="168" height="36" fill="white"/>
</clipPath>
</defs>
</svg>

<svg width="168" height="36" fill="none" xmlns="http://www.w3.org/2000/svg"><g clip-path="url(#clip0)"><path d="M37.086 13.883a4.441 4.441 0 00-1.952-.423c-.65.047-1.255-.33-1.58-.942L31.37 8.707c-.326-.565-.28-1.318.046-1.883.465-.8.697-1.74.604-2.776C31.834 1.93 30.115.189 28.023 0a4.427 4.427 0 00-4.321 2.212c-.326.564-.93.94-1.58.94h-4.276c-.65 0-1.255-.376-1.58-.94A4.47 4.47 0 0011.944 0C9.853.236 8.18 1.977 7.947 4.095a4.631 4.631 0 00.604 2.776c.326.565.372 1.27.047 1.883L6.46 12.565c-.325.612-.976.942-1.673.942-.372 0-.79 0-1.208.094-1.766.376-3.16 1.835-3.44 3.623-.464 2.824 1.674 5.318 4.416 5.318h.093c.65 0 1.3.33 1.626.894l2.23 3.906c.326.565.28 1.27-.046 1.882a4.56 4.56 0 00-.604 2.73C8.04 34.07 9.76 35.765 11.804 36c1.813.188 3.486-.706 4.322-2.165.326-.565.93-.941 1.58-.941h4.369c.65 0 1.255.376 1.58.941a4.42 4.42 0 003.95 2.212c2.324-.047 4.322-2.024 4.369-4.377.093-2.54-1.952-4.659-4.462-4.659-1.766 0-3.3 1.036-4.043 2.589-.279.611-.93.988-1.626.988h-3.95a1.82 1.82 0 01-1.627-.988c-.697-1.506-2.277-2.588-4.043-2.588h-.233c-.65.047-1.3-.33-1.626-.895l-2.138-3.764c-.325-.612-.279-1.365.047-1.93 0-.047.046-.047.046-.094.325-.565.93-.941 1.58-.941l4.462-.047a1.82 1.82 0 011.626.988c.79 1.365 2.23 2.259 3.857 2.259 1.673 0 3.114-.941 3.904-2.306a1.82 1.82 0 011.627-.988h5.576c.511 1.93 2.231 3.294 4.322 3.294 2.65 0 4.74-2.306 4.462-5.035-.186-1.647-1.255-3.012-2.65-3.67zM19.89 13.46c-1.766 0-3.253 1.035-3.997 2.494-.279.611-.93.94-1.58.94l-4.183.048a1.82 1.82 0 01-1.626-.988l-.14-.283c-.325-.564-.371-1.223-.046-1.788l2.23-3.953c.326-.612.977-.941 1.627-.941h.186c1.766 0 3.253-1.035 3.997-2.541.279-.612.93-.988 1.58-.988h3.997c.65 0 1.3.376 1.58.988.743 1.506 2.23 2.541 3.996 2.541h.186c.697-.047 1.302.33 1.627.941l2.091 3.718c.325.612.372 1.317 0 1.882a3.83 3.83 0 00-.511 1.27H25.42c-.697 0-1.301-.423-1.627-1.035-.743-1.317-2.23-2.305-3.903-2.305z" fill="url(#paint0_linear)"/><path d="M59.904 12.47c.418 0 .743-.046 1.022-.282.279-.235.372-.565.372-.94 0-.425-.14-.707-.418-.99a1.49 1.49 0 00-.976-.376h-7.622c-.418 0-.743.142-.976.424a1.363 1.363 0 00-.418.988V24.66c0 .423.14.753.418.988.28.282.604.424.976.424h7.622c.418 0 .743-.142.976-.377.278-.235.418-.565.418-.941 0-.377-.14-.659-.418-.941a1.33 1.33 0 00-.976-.424h-6.181v-4.282h5.158a1.52 1.52 0 001.023-.377c.279-.235.371-.564.371-.94 0-.424-.139-.707-.418-.989a1.49 1.49 0 00-.976-.377h-5.158v-3.952h6.18zm17.892 1.036a4.03 4.03 0 00-2.417.8c-.697.518-1.255 1.13-1.58 1.741-.511-1.694-1.766-2.541-3.671-2.541-.79 0-1.487.188-2.091.612a5.124 5.124 0 00-1.58 1.411v-.376c0-.424-.14-.753-.372-.988a1.33 1.33 0 00-.976-.424c-.418 0-.744.141-.976.424-.28.282-.372.612-.372.988v9.553c0 .423.14.753.372.988.279.283.604.424.976.424.418 0 .743-.141.976-.424.279-.282.371-.612.371-.988v-5.93c0-.8.233-1.458.697-1.976.465-.518 1.162-.753 1.999-.753.836 0 1.394.235 1.72.706.325.47.51 1.13.51 2.023v5.93c0 .423.14.753.372.988.28.283.605.424.976.424.419 0 .744-.141.976-.424.28-.282.372-.612.372-.988v-5.93c0-.8.232-1.458.697-1.976.465-.518 1.162-.753 1.998-.753.837 0 1.395.235 1.72.706.325.47.511 1.13.511 2.023v5.93c0 .423.14.753.372.988.279.283.604.424.976.424.418 0 .743-.141.976-.424.279-.282.372-.612.372-.988v-5.93c0-1.647-.28-2.917-.883-3.858-.465-.941-1.534-1.412-3.021-1.412zm16.358.8c-.836-.565-1.812-.8-2.834-.8-.698 0-1.395.188-2.045.518a4.567 4.567 0 00-1.534 1.223v-.094c0-.424-.14-.753-.372-.988a1.33 1.33 0 00-.976-.424c-.418 0-.743.141-.976.424-.278.282-.371.612-.371.988v14.165c0 .423.14.753.371 1.035.28.282.605.376.976.376.419 0 .744-.14.976-.423.28-.283.372-.612.372-.988V24.8c.418.424.976.8 1.627 1.082.65.283 1.347.471 2.044.471a5.213 5.213 0 002.789-.8c.836-.565 1.487-1.318 1.998-2.306a7.67 7.67 0 00.744-3.341c0-1.224-.233-2.353-.744-3.294a6.132 6.132 0 00-2.045-2.306zm-.79 8.376c-.604.753-1.44 1.13-2.416 1.13s-1.813-.377-2.417-1.13c-.604-.753-.93-1.647-.93-2.776 0-1.13.326-2.024.93-2.777.604-.753 1.44-1.082 2.417-1.082.976 0 1.812.377 2.416 1.082.605.753.93 1.647.93 2.777 0 1.082-.325 2.023-.93 2.776zm12.548-9.176c-.79 0-1.487.188-2.091.612a5.115 5.115 0 00-1.58 1.411V10.4c0-.424-.14-.753-.372-.988a1.33 1.33 0 00-.976-.424c-.418 0-.744.141-.976.424-.279.282-.372.611-.372.988v14.306c0 .423.14.753.372.988.279.283.604.424.976.424.418 0 .744-.141.976-.424.279-.282.372-.612.372-.988v-5.93c0-.8.232-1.458.697-1.976.465-.518 1.162-.753 1.998-.753.837 0 1.394.235 1.72.706.325.47.511 1.13.511 2.023v5.93c0 .423.139.753.372.988.278.283.604.424.976.424.371 0 .743-.141.975-.424.279-.282.372-.612.372-.988v-5.93c0-1.647-.279-2.917-.883-3.858-.511-.941-1.533-1.412-3.067-1.412zm17.149 0c-.419 0-.744.141-.976.423-.279.283-.372.612-.372.989-.418-.424-.976-.753-1.627-1.036a4.972 4.972 0 00-2.044-.423 5.216 5.216 0 00-2.789.8c-.836.564-1.487 1.317-1.998 2.306a7.666 7.666 0 00-.744 3.34c0 1.224.233 2.354.744 3.295.511.988 1.162 1.741 1.998 2.259.837.564 1.813.8 2.835.8a4.49 4.49 0 002.045-.47c.65-.33 1.162-.707 1.533-1.13 0 .423.14.753.419.988.232.282.557.377.976.377.418 0 .743-.142.976-.424.278-.282.371-.612.371-.988v-9.694c0-.424-.139-.753-.371-1.036-.279-.282-.605-.376-.976-.376zm-2.185 9.176c-.604.753-1.44 1.083-2.416 1.083s-1.813-.377-2.417-1.083c-.604-.753-.929-1.647-.929-2.776 0-1.13.325-2.024.929-2.777.604-.753 1.441-1.129 2.417-1.129.976 0 1.812.377 2.416 1.13.605.752.93 1.646.93 2.776s-.325 2.023-.93 2.776zm14.5-4.47c-.697-.33-1.58-.659-2.649-.988-1.255-.424-2.184-.848-2.881-1.318-.651-.47-1.023-1.177-1.023-2.07 0-.848.372-1.554 1.069-2.024.697-.518 1.627-.753 2.696-.753.743 0 1.44.141 2.137.47.697.33 1.209.706 1.627 1.224a.524.524 0 00.372.141.743.743 0 00.511-.235c.139-.141.232-.283.232-.47 0-.189-.093-.424-.325-.66-.465-.564-1.115-1.035-1.952-1.364-.836-.33-1.673-.47-2.602-.47-1.023 0-1.906.187-2.696.564-.79.376-1.394.847-1.812 1.506a3.824 3.824 0 00-.651 2.164c0 .894.186 1.647.604 2.26.418.611.93 1.082 1.627 1.411.65.377 1.487.659 2.463.988a19.31 19.31 0 012.231.847 4.654 4.654 0 011.394 1.083c.372.423.557.988.557 1.647 0 .847-.371 1.553-1.068 2.07-.744.518-1.627.8-2.742.8-1.766 0-3.253-.659-4.462-1.976a.741.741 0 00-.511-.236c-.186 0-.325.095-.511.236a.758.758 0 00-.233.517c0 .236.093.424.279.565.79.8 1.627 1.365 2.463 1.741.837.377 1.813.565 2.928.565 1.023 0 1.906-.188 2.742-.565.79-.376 1.441-.894 1.859-1.506.465-.658.651-1.364.651-2.117 0-1.035-.233-1.835-.651-2.447-.418-.8-.976-1.27-1.673-1.6zm13.338-3.389a5.703 5.703 0 00-2.928-.8 5.703 5.703 0 00-2.928.8c-.883.518-1.58 1.271-2.091 2.212-.511.942-.744 1.977-.744 3.153 0 1.177.233 2.212.744 3.153.511.941 1.208 1.694 2.091 2.212a5.7 5.7 0 002.928.8 5.703 5.703 0 002.928-.8c.883-.518 1.58-1.27 2.091-2.212.511-.941.744-1.976.744-3.153 0-1.176-.233-2.211-.744-3.153-.511-.94-1.208-1.694-2.091-2.212zm.883 7.86c-.372.752-.93 1.317-1.58 1.74a4.2 4.2 0 01-2.231.612c-.837 0-1.58-.235-2.231-.659-.65-.423-1.208-.988-1.58-1.74-.372-.754-.604-1.554-.604-2.495 0-.941.186-1.741.604-2.494.372-.753.93-1.318 1.58-1.741a4.016 4.016 0 012.231-.659c.836 0 1.58.235 2.231.659a4.074 4.074 0 011.58 1.741c.371.753.557 1.553.557 2.494.047.941-.139 1.788-.557 2.541zm9.759-13.412c-.372-.142-.744-.189-1.208-.189-.93 0-1.673.283-2.231.8-.558.518-.836 1.271-.836 2.26v2.4h-1.674a.592.592 0 00-.464.187c-.14.095-.186.283-.186.471s.046.33.186.47a.592.592 0 00.464.189h1.674v9.553c0 .188.046.376.185.517.14.142.279.189.512.189.186 0 .371-.047.511-.189.139-.14.186-.282.186-.517v-9.6h2.556a.59.59 0 00.464-.188.606.606 0 00.186-.471.606.606 0 00-.186-.47.59.59 0 00-.464-.189h-2.556v-2.4c0-.565.139-1.035.418-1.365.279-.329.651-.47 1.115-.47a3.1 3.1 0 01.79.141c.186.094.372.094.512.094a.565.565 0 00.418-.188.61.61 0 00.186-.47c-.047-.236-.186-.424-.558-.565zm7.993 6.352a.593.593 0 00.465-.188c.14-.094.186-.282.186-.47a.606.606 0 00-.186-.47.593.593 0 00-.465-.19h-2.277v-2.54c0-.189-.046-.377-.186-.518-.139-.141-.279-.188-.511-.188-.186 0-.372.047-.511.188-.139.141-.186.282-.186.518v2.588h-1.673a.594.594 0 00-.465.188.61.61 0 00-.186.47c0 .189.047.33.186.471.14.142.279.189.465.189h1.673v7.811c0 .847.139 1.46.465 1.836.279.376.604.611.929.705.326.095.697.095 1.116.095.325 0 .604-.095.883-.236.232-.14.371-.329.371-.564a.765.765 0 00-.139-.424c-.093-.094-.232-.188-.372-.188-.093 0-.186 0-.325.047-.14.047-.233.047-.325.047-.372 0-.651-.094-.837-.33-.232-.188-.325-.611-.325-1.176v-7.67h2.23z" fill="#4C4C4C"/></g><defs><linearGradient id="paint0_linear" x1="6.318" y1="31.833" x2="33.912" y2="4.582" gradientUnits="userSpaceOnUse"><stop stop-color="#0090C6"/><stop offset="1" stop-color="#1EDDD6"/></linearGradient><clipPath id="clip0"><path fill="#fff" d="M0 0h168v36H0z"/></clipPath></defs></svg>
